app/assets/img/cat-transport.svg

<svg height="60" viewBox="0 0 51 60" width="51" xmlns="http://www.w3.org/2000/svg"><path d="m25 62.2105263c0 2.7789474 1.243125 5.2736842 3.1875 7.0105263v5.6210527c0 1.7368421 1.434375 3.1578947 3.1875 3.1578947h3.1875c1.753125 0 3.1875-1.4210526 3.1875-3.1578947v-3.1578948h25.5v3.1578948c0 1.7368421 1.434375 3.1578947 3.1875 3.1578947h3.1875c1.753125 0 3.1875-1.4210526 3.1875-3.1578947v-5.6210527c1.944375-1.7368421 3.1875-4.2315789 3.1875-7.0105263v-31.5789474c0-11.0526315-11.41125-12.6315789-25.5-12.6315789s-25.5 1.5789474-25.5 12.6315789zm11.15625 3.1578948c-2.645625 0-4.78125-2.1157895-4.78125-4.7368422 0-2.6210526 2.135625-4.7368421 4.78125-4.7368421s4.78125 2.1157895 4.78125 4.7368421c0 2.6210527-2.135625 4.7368422-4.78125 4.7368422zm28.6875 0c-2.645625 0-4.78125-2.1157895-4.78125-4.7368422 0-2.6210526 2.135625-4.7368421 4.78125-4.7368421s4.78125 2.1157895 4.78125 4.7368421c0 2.6210527-2.135625 4.7368422-4.78125 4.7368422zm4.78125-18.9473685h-38.25v-15.7894737h38.25z" transform="translate(-25 -18)"/></svg>

<?xml version="1.0" encoding="UTF-8"?>
<svg width="51px" height="60px" viewBox="0 0 51 60" version="1.1" xmlns="http://www.w3.org/2000/svg" xmlns:xlink="http://www.w3.org/1999/xlink">
    <!-- Generator: Sketch 50.2 (55047) - http://www.bohemiancoding.com/sketch -->
    <title>cat-transport</title>
    <desc>Created with Sketch.</desc>
    <defs>
        <path d="M25,62.2105263 C25,64.9894737 26.243125,67.4842105 28.1875,69.2210526 L28.1875,74.8421053 C28.1875,76.5789474 29.621875,78 31.375,78 L34.5625,78 C36.315625,78 37.75,76.5789474 37.75,74.8421053 L37.75,71.6842105 L63.25,71.6842105 L63.25,74.8421053 C63.25,76.5789474 64.684375,78 66.4375,78 L69.625,78 C71.378125,78 72.8125,76.5789474 72.8125,74.8421053 L72.8125,69.2210526 C74.756875,67.4842105 76,64.9894737 76,62.2105263 L76,30.6315789 C76,19.5789474 64.58875,18 50.5,18 C36.41125,18 25,19.5789474 25,30.6315789 L25,62.2105263 Z M36.15625,65.3684211 C33.510625,65.3684211 31.375,63.2526316 31.375,60.6315789 C31.375,58.0105263 33.510625,55.8947368 36.15625,55.8947368 C38.801875,55.8947368 40.9375,58.0105263 40.9375,60.6315789 C40.9375,63.2526316 38.801875,65.3684211 36.15625,65.3684211 Z M64.84375,65.3684211 C62.198125,65.3684211 60.0625,63.2526316 60.0625,60.6315789 C60.0625,58.0105263 62.198125,55.8947368 64.84375,55.8947368 C67.489375,55.8947368 69.625,58.0105263 69.625,60.6315789 C69.625,63.2526316 67.489375,65.3684211 64.84375,65.3684211 Z M69.625,46.4210526 L31.375,46.4210526 L31.375,30.6315789 L69.625,30.6315789 L69.625,46.4210526 Z" id="path-1"></path>
    </defs>
    <g id="Page-1" stroke="none" stroke-width="1" fill="none" fill-rule="evenodd">
        <g id="askdarcel/icon/category/transport" transform="translate(-25.000000, -18.000000)">
            <mask id="mask-2" fill="white">
                <use xlink:href="#path-1"></use>
            </mask>
            <use id="cat-transport" fill="#000000" fill-rule="nonzero" xlink:href="#path-1"></use>
        </g>
    </g>
</svg>
